images/mith.svg

<svg height="250" viewBox="0 0 250 250" width="250" xmlns="http://www.w3.org/2000/svg"><path d="m250 125c0 69.035156-55.964844 125-125 125s-125-55.964844-125-125 55.964844-125 125-125 125 55.964844 125 125zm0 0" fill="#00316d" fill-rule="evenodd"/><path d="m141.84375 155.367188c-.101562-.1875-.117188-.265626-.15625-.289063-4.84375-2.289063-9.6875-4.585937-14.546875-6.84375-.257813-.125-.78125-.09375-.945313.085937-2.109374 2.265626-4.171874 4.585938-6.265624 6.90625 1.515624 1.117188 20.648437 1.125 21.914062.140626m-44.328125-55.960938-.484375-1.015625c-.40625.289063-.9375.5-1.203125.890625-4.476563 6.660156-8.921875 13.335938-13.34375 20.03125-.273437.421875-.257813 1.039062-.390625 1.5625.546875-.109375 1.15625-.085938 1.601562-.359375 3.796876-2.28125 7.554688-4.621094 11.28125-7.015625.65625-.460938 1.105469-1.160156 1.257813-1.945312.5-3.90625.84375-7.835938 1.28125-12.148438m93.726563 56.640625h6.453124c1.242188 0 1.71875-.46875.929688-1.664063-4.101562-6.265624-8.1875-12.539062-12.304688-18.78125-.21875-.34375-.71875-.492187-1.09375-.726562-.195312.390625-.53125.78125-.570312 1.195312-.476562 6.109376-.90625 12.21875-1.375 18.328126-.085938 1.164062.320312 1.6875 1.507812 1.664062 2.148438-.046875 4.296876-.015625 6.453126-.015625m-138.546876-.46875c.984376.234375 1.46875.453125 1.945313.460937 6.976563.015626 13.953125 0 20.921875.015626 1.351562 0 1.695312-.476563 1.125-1.78125-2.1875-4.964844-4.328125-9.949219-6.421875-14.953126-.609375-1.460937-1.171875-1.390624-2.132813-.359374-3.71875 4.015624-7.46875 7.992187-11.203124 11.984374-1.304688 1.40625-2.578126 2.8125-4.234376 4.632813m103.085938-36.039063c.453125.882813.601562 1.265626.828125 1.59375l9.4375 13.703126c3.898437 5.664062 7.789063 11.328124 11.71875 16.96875.265625.390624.78125.601562 1.171875.890624.203125-.46875.53125-.914062.59375-1.398437.15625-1.328125.1875-2.65625.273438-3.984375.421874-6.054688.890624-12.101562 1.25-18.148438.15625-2.578124-.960938-3.90625-3.40625-4.515624-6.523438-1.632813-13.046876-3.273438-19.578126-4.890626-.585937-.140624-1.203124-.117187-2.289062-.21875m-1.65625-40.117187-.59375.101563c-.078125 1.195312-.195312 2.398437-.234375 3.609374l-.867187 29.460938c-.039063 1.078125.28125 1.640625 1.398437 1.90625 6.765625 1.640625 13.515625 3.367188 20.28125 5.03125.585937.140625 1.234375.007812 1.851563 0-.15625-.601562-.1875-1.28125-.476563-1.8125-6.742187-12.265625-13.5-24.53125-20.273437-36.78125-.296876-.539062-.71875-1.015625-1.085938-1.515625m-30.351562 60.210937c.1875-1.039062.367187-1.664062.390624-2.289062.101563-3.273438.109376-6.546875.257813-9.820312.140625-2.492188-.601563-4.957032-2.09375-6.960938-6.203125-8.605469-12.386719-17.226562-18.554687-25.859375-.28125-.390625-.398438-.898437-.59375-1.351563l-.734376.4375c-.179687.65625-.460937 1.304688-.53125 1.96875-.546874 5.3125-1.015624 10.625-1.601562 15.921876-.179688 1.128906.1875 2.28125.992188 3.09375 6.992187 7.789062 13.9375 15.625 20.914062 23.4375.375.421874.828125.765624 1.554688 1.421874m4.507812-1.632812.46875.3125c.429688-.335938.9375-.601562 1.28125-1.015625 5.941406-7.210937 11.859375-14.441406 17.757812-21.6875.363282-.460937.574219-1.019531.609376-1.601563.28125-9.648437.523437-19.296874.742187-28.945312.015625-.53125-.289063-1.070312-.453125-1.601562-.429688.414062-1.03125.75-1.273438 1.25-5.46875 11.578124-10.695312 23.273437-16.429687 34.703124-3.03125 6.046876-2.546875 12.289063-2.703125 18.59375m-27.367188 18.046876c3.757813 0 7.523438.054687 11.28125-.046876.859376-.039062 1.671876-.386718 2.296876-.976562 2.617187-2.742188 5.070312-5.648438 7.679687-8.398438.976563-1.015624.757813-1.640624-.070313-2.546874-4.410156-4.78125-8.777343-9.601563-13.109374-14.453126-1.046876-1.171874-1.648438-1.164062-2.585938.117188-5.945312 8.132812-11.953125 16.210938-17.929688 24.328125-.296874.40625-.40625.945313-.609374 1.421875.523437.1875 1.046874.523438 1.578124.523438 3.828126.046874 7.640626.03125 11.46875.03125m3.890626-30.984376c-2.078126-2.414062-4.117188-4.6875-6.046876-7.070312-.8125-.992188-1.4375-1.09375-2.53125-.414062-6.53125 4.109374-13.132812 8.109374-19.648437 12.242187-1.179687.75-2.109375 1.914063-3.109375 2.9375-.929688.953125-.804688 2-.296875 3.171875 2.539063 5.804688 5.015625 11.632812 7.523437 17.453125.953126 2.1875 1.3125 2.226563 2.773438.273437 3.867188-5.15625 7.71875-10.335937 11.570312-15.5zm45.273437-6.15625c-.507813.820313-.75 1.320313-1.09375 1.726563-6.1875 7.546875-12.382813 15.09375-18.617187 22.609375-1.015626 1.226562-.492188 1.710938.65625 2.234375 7.164062 3.28125 14.296874 6.617187 21.476562 9.882813.917969.414062 1.914062.636718 2.921875.65625 5.90625.054687 11.820313.039062 17.734375.007812.546875 0 1.101562-.25 1.65625-.390625-.195312-.578125-.28125-1.242187-.625-1.734375-5.449219-7.957031-10.917969-15.90625-16.398438-23.84375-2.421874-3.515625-4.859374-7.03125-7.710937-11.148438m-25.132813 45.132813c-26.890624 0-53.78125-.007813-80.671874.015625-2.09375 0-3.984376-.234375-4.890626-2.484375-.859374-2.132813.140626-3.710937 1.539063-5.203125 8.03125-8.578125 16.171875-17.0625 23.984375-25.828125 2.984375-3.34375 5.289062-7.320313 7.8125-11.078125 8.085938-12.09375 16.109375-24.234375 24.234375-36.296875.796875-1.179687 2.015625-2.375 3.296875-2.84375 1.765625-.65625 3.273438.359375 4.398438 1.96875 6.539062 9.34375 13.125 18.65625 19.695312 27.984375 1.351562 1.90625 1.835938 1.84375 2.835938-.328125l20.265624-44.140625c.796876-1.734375 1.851563-3.210938 3.90625-3.304688 2.148438-.101562 3.453126 1.203126 4.460938 3.046876 10.171875 18.453124 20.109375 37.0625 30.679688 55.28125 6.390624 11.015624 13.789062 21.414062 20.734374 32.09375.859376 1.3125 1.726563 2.617187 2.570313 3.945312 1.015625 1.601562 1.617187 3.359375.664063 5.132812-.9375 1.71875-2.671876 2.046876-4.492188 2.046876-27.007812-.015626-54.015625-.007813-81.023438-.007813" fill="#fff"/></svg>

<svg xmlns="http://www.w3.org/2000/svg" xmlns:xlink="http://www.w3.org/1999/xlink" width="250px" height="250px" viewBox="0 0 250 250" version="1.1">
<g id="surface1">
<path style=" stroke:none;fill-rule:evenodd;fill:rgb(0%,19.215687%,42.745098%);fill-opacity:1;" d="M 250 125 C 250 194.035156 194.035156 250 125 250 C 55.964844 250 0 194.035156 0 125 C 0 55.964844 55.964844 0 125 0 C 194.035156 0 250 55.964844 250 125 Z M 250 125 "/>
<path style=" stroke:none;fill-rule:nonzero;fill:rgb(100%,100%,100%);fill-opacity:1;" d="M 141.84375 155.367188 C 141.742188 155.179688 141.726562 155.101562 141.6875 155.078125 C 136.84375 152.789062 132 150.492188 127.140625 148.234375 C 126.882812 148.109375 126.359375 148.140625 126.195312 148.320312 C 124.085938 150.585938 122.023438 152.90625 119.929688 155.226562 C 121.445312 156.34375 140.578125 156.351562 141.84375 155.367188 M 97.515625 99.40625 L 97.03125 98.390625 C 96.625 98.679688 96.09375 98.890625 95.828125 99.28125 C 91.351562 105.941406 86.90625 112.617188 82.484375 119.3125 C 82.210938 119.734375 82.226562 120.351562 82.09375 120.875 C 82.640625 120.765625 83.25 120.789062 83.695312 120.515625 C 87.492188 118.234375 91.25 115.894531 94.976562 113.5 C 95.632812 113.039062 96.082031 112.339844 96.234375 111.554688 C 96.734375 107.648438 97.078125 103.71875 97.515625 99.40625 M 191.242188 156.046875 L 197.695312 156.046875 C 198.9375 156.046875 199.414062 155.578125 198.625 154.382812 C 194.523438 148.117188 190.4375 141.84375 186.320312 135.601562 C 186.101562 135.257812 185.601562 135.109375 185.226562 134.875 C 185.03125 135.265625 184.695312 135.65625 184.65625 136.070312 C 184.179688 142.179688 183.75 148.289062 183.28125 154.398438 C 183.195312 155.5625 183.601562 156.085938 184.789062 156.0625 C 186.9375 156.015625 189.085938 156.046875 191.242188 156.046875 M 52.695312 155.578125 C 53.679688 155.8125 54.164062 156.03125 54.640625 156.039062 C 61.617188 156.054688 68.59375 156.039062 75.5625 156.054688 C 76.914062 156.054688 77.257812 155.578125 76.6875 154.273438 C 74.5 149.308594 72.359375 144.324219 70.265625 139.320312 C 69.65625 137.859375 69.09375 137.929688 68.132812 138.960938 C 64.414062 142.976562 60.664062 146.953125 56.929688 150.945312 C 55.625 152.351562 54.351562 153.757812 52.695312 155.578125 M 155.78125 119.539062 C 156.234375 120.421875 156.382812 120.804688 156.609375 121.132812 L 166.046875 134.835938 C 169.945312 140.5 173.835938 146.164062 177.765625 151.804688 C 178.03125 152.195312 178.546875 152.40625 178.9375 152.695312 C 179.140625 152.226562 179.46875 151.78125 179.53125 151.296875 C 179.6875 149.96875 179.71875 148.640625 179.804688 147.3125 C 180.226562 141.257812 180.695312 135.210938 181.054688 129.164062 C 181.210938 126.585938 180.09375 125.257812 177.648438 124.648438 C 171.125 123.015625 164.601562 121.375 158.070312 119.757812 C 157.484375 119.617188 156.867188 119.640625 155.78125 119.539062 M 154.125 79.421875 L 153.53125 79.523438 C 153.453125 80.71875 153.335938 81.921875 153.296875 83.132812 L 152.429688 112.59375 C 152.390625 113.671875 152.710938 114.234375 153.828125 114.5 C 160.59375 116.140625 167.34375 117.867188 174.109375 119.53125 C 174.695312 119.671875 175.34375 119.539062 175.960938 119.53125 C 175.804688 118.929688 175.773438 118.25 175.484375 117.71875 C 168.742188 105.453125 161.984375 93.1875 155.210938 80.9375 C 154.914062 80.398438 154.492188 79.921875 154.125 79.421875 M 123.773438 139.632812 C 123.960938 138.59375 124.140625 137.96875 124.164062 137.34375 C 124.265625 134.070312 124.273438 130.796875 124.421875 127.523438 C 124.5625 125.03125 123.820312 122.566406 122.328125 120.5625 C 116.125 111.957031 109.941406 103.335938 103.773438 94.703125 C 103.492188 94.3125 103.375 93.804688 103.179688 93.351562 L 102.445312 93.789062 C 102.265625 94.445312 101.984375 95.09375 101.914062 95.757812 C 101.367188 101.070312 100.898438 106.382812 100.3125 111.679688 C 100.132812 112.808594 100.5 113.960938 101.304688 114.773438 C 108.296875 122.5625 115.242188 130.398438 122.21875 138.210938 C 122.59375 138.632812 123.046875 138.976562 123.773438 139.632812 M 128.28125 138 L 128.75 138.3125 C 129.179688 137.976562 129.6875 137.710938 130.03125 137.296875 C 135.972656 130.085938 141.890625 122.855469 147.789062 115.609375 C 148.152344 115.148438 148.363281 114.589844 148.398438 114.007812 C 148.679688 104.359375 148.921875 94.710938 149.140625 85.0625 C 149.15625 84.53125 148.851562 83.992188 148.6875 83.460938 C 148.257812 83.875 147.65625 84.210938 147.414062 84.710938 C 141.945312 96.289062 136.71875 107.984375 130.984375 119.414062 C 127.953125 125.460938 128.4375 131.703125 128.28125 138.007812 M 100.914062 156.054688 C 104.671875 156.054688 108.4375 156.109375 112.195312 156.007812 C 113.054688 155.96875 113.867188 155.621094 114.492188 155.03125 C 117.109375 152.289062 119.5625 149.382812 122.171875 146.632812 C 123.148438 145.617188 122.929688 144.992188 122.101562 144.085938 C 117.691406 139.304688 113.324219 134.484375 108.992188 129.632812 C 107.945312 128.460938 107.34375 128.46875 106.40625 129.75 C 100.460938 137.882812 94.453125 145.960938 88.476562 154.078125 C 88.179688 154.484375 88.070312 155.023438 87.867188 155.5 C 88.390625 155.6875 88.914062 156.023438 89.445312 156.023438 C 93.273438 156.070312 97.085938 156.054688 100.914062 156.054688 M 104.804688 125.070312 C 102.726562 122.65625 100.6875 120.382812 98.757812 118 C 97.945312 117.007812 97.320312 116.90625 96.226562 117.585938 C 89.695312 121.695312 83.09375 125.695312 76.578125 129.828125 C 75.398438 130.578125 74.46875 131.742188 73.46875 132.765625 C 72.539062 133.71875 72.664062 134.765625 73.171875 135.9375 C 75.710938 141.742188 78.1875 147.570312 80.695312 153.390625 C 81.648438 155.578125 82.007812 155.617188 83.46875 153.664062 C 87.335938 148.507812 91.1875 143.328125 95.039062 138.164062 L 104.804688 125.070312 M 150.078125 118.914062 C 149.570312 119.734375 149.328125 120.234375 148.984375 120.640625 C 142.796875 128.1875 136.601562 135.734375 130.367188 143.25 C 129.351562 144.476562 129.875 144.960938 131.023438 145.484375 C 138.1875 148.765625 145.320312 152.101562 152.5 155.367188 C 153.417969 155.78125 154.414062 156.003906 155.421875 156.023438 C 161.328125 156.078125 167.242188 156.0625 173.15625 156.03125 C 173.703125 156.03125 174.257812 155.78125 174.8125 155.640625 C 174.617188 155.0625 174.53125 154.398438 174.1875 153.90625 C 168.738281 145.949219 163.269531 138 157.789062 130.0625 C 155.367188 126.546875 152.929688 123.03125 150.078125 118.914062 M 124.945312 164.046875 C 98.054688 164.046875 71.164062 164.039062 44.273438 164.0625 C 42.179688 164.0625 40.289062 163.828125 39.382812 161.578125 C 38.523438 159.445312 39.523438 157.867188 40.921875 156.375 C 48.953125 147.796875 57.09375 139.3125 64.90625 130.546875 C 67.890625 127.203125 70.195312 123.226562 72.71875 119.46875 C 80.804688 107.375 88.828125 95.234375 96.953125 83.171875 C 97.75 81.992188 98.96875 80.796875 100.25 80.328125 C 102.015625 79.671875 103.523438 80.6875 104.648438 82.296875 C 111.1875 91.640625 117.773438 100.953125 124.34375 110.28125 C 125.695312 112.1875 126.179688 112.125 127.179688 109.953125 L 147.445312 65.8125 C 148.242188 64.078125 149.296875 62.601562 151.351562 62.507812 C 153.5 62.40625 154.804688 63.710938 155.8125 65.554688 C 165.984375 84.007812 175.921875 102.617188 186.492188 120.835938 C 192.882812 131.851562 200.28125 142.25 207.226562 152.929688 C 208.085938 154.242188 208.953125 155.546875 209.796875 156.875 C 210.8125 158.476562 211.414062 160.234375 210.460938 162.007812 C 209.523438 163.726562 207.789062 164.054688 205.96875 164.054688 C 178.960938 164.039062 151.953125 164.046875 124.945312 164.046875 "/>
</g>
</svg>
